packages/client-app/static/animations/inbox-zero/tron/tron.hyperesources/Path 5.svg

<?xml version="1.0" encoding="UTF-8" standalone="no"?>
<svg width="76px" height="86px" viewBox="0 0 76 86" version="1.1" xmlns="http://www.w3.org/2000/svg" xmlns:xlink="http://www.w3.org/1999/xlink">
    <!-- Generator: Sketch 3.6.1 (26313) - http://www.bohemiancoding.com/sketch -->
    <title>Path 5</title>
    <desc>Created with Sketch.</desc>
    <defs></defs>
    <g id="Page-1" stroke="none" stroke-width="1" fill="none" fill-rule="evenodd">
        <path d="M46.6054688,0.1015625 L75.1759153,28.6720091 L17.8239949,86.0239294 L6.39656569,74.5965002 L6.39656569,57.1336389 L0.0605513391,50.7976246 L24.1656157,26.6925602 L37.5606743,26.6925602 L45.5978933,18.6553413 L36.9530462,10.0104942 L46.6054688,0.1015625 Z" id="Path-5" fill="#49585D"></path>
    </g>
</svg>

<svg xmlns="http://www.w3.org/2000/svg" viewBox="0 0 76 86" enable-background="new 0 0 76 86"><style type="text/css">.st0{fill:#49585D;}</style><path id="Path-5" class="st0" d="M46.6.1l28.6 28.6-57.4 57.3-11.4-11.4v-17.5l-6.3-6.3 24.1-24.1h13.4l8-8-8.6-8.7 9.6-9.9z"/></svg>
